style-guide/assets/xd-icons-download.svg

<svg viewBox="0 0 24 24" xmlns="http://www.w3.org/2000/svg" xmlns:xlink="http://www.w3.org/1999/xlink">
  <path d="M11.293 16.707a1.009 1.009 0 0 0 .704.293h.006a.988.988 0 0 0 .704-.293l7-7a.999.999 0 1 0-1.414-1.414L13 13.586V2a1 1 0 1 0-2 0v11.586L5.707 8.293a.999.999 0 1 0-1.414 1.414l7 7zM22 16a1 1 0 0 0-1 1v4H3v-4a1 1 0 1 0-2 0v5a1 1 0 0 0 1 1h20a1 1 0 0 0 1-1v-5a1 1 0 0 0-1-1"/>
</svg>

<?xml version="1.0" encoding="UTF-8"?>
<svg width="24px" height="24px" viewBox="0 0 24 24" version="1.1" xmlns="http://www.w3.org/2000/svg" xmlns:xlink="http://www.w3.org/1999/xlink">
    <!-- Generator: Sketch 51.3 (57544) - http://www.bohemiancoding.com/sketch -->
    <title>download</title>
    <desc>Created with Sketch.</desc>
    <defs>
        <path d="M11.293,16.707 C11.39,16.803 11.5,16.876 11.619,16.925 C11.735,16.973 11.863,17 11.997,17 L12,17 L12.003,17 C12.137,17 12.265,16.973 12.381,16.925 C12.5,16.876 12.61,16.803 12.707,16.707 L19.707,9.707 C20.098,9.316 20.098,8.684 19.707,8.293 C19.316,7.902 18.684,7.902 18.293,8.293 L13,13.586 L13,2 C13,1.447 12.553,1 12,1 C11.447,1 11,1.447 11,2 L11,13.586 L5.707,8.293 C5.316,7.902 4.684,7.902 4.293,8.293 C3.902,8.684 3.902,9.316 4.293,9.707 L11.293,16.707 Z M22,16 C21.447,16 21,16.447 21,17 L21,21 L3,21 L3,17 C3,16.447 2.553,16 2,16 C1.447,16 1,16.447 1,17 L1,22 C1,22.553 1.447,23 2,23 L22,23 C22.553,23 23,22.553 23,22 L23,17 C23,16.447 22.553,16 22,16" id="path-1"></path>
    </defs>
    <g id="download" stroke="none" stroke-width="1" fill="none" fill-rule="evenodd">
        <mask id="mask-2" fill="white">
            <use xlink:href="#path-1"></use>
        </mask>
        <use id="icons/24px/Download" fill="#000000" xlink:href="#path-1"></use>
    </g>
</svg>
